templates/main/source/images/Style.svg

<?xml version="1.0" encoding="UTF-8"?>
<svg width="16px" height="14px" viewBox="0 0 16 14" version="1.1" xmlns="http://www.w3.org/2000/svg" xmlns:xlink="http://www.w3.org/1999/xlink">
    <!-- Generator: Sketch 53.2 (72643) - https://sketchapp.com -->
    <title>Style</title>
    <desc>Created with Sketch.</desc>
    <g id="Page-1" stroke="none" stroke-width="1" fill="none" fill-rule="evenodd">
        <g id="02---02---Карточка_desktop" transform="translate(-157.000000, -1127.000000)" fill="#bb0000">
            <g id="список-характеристик" transform="translate(132.000000, 968.000000)">
                <g id="Group-5" transform="translate(25.000000, 86.000000)">
                    <path d="M1.79471964,77 L14.2052804,77 C14.8293435,77 15.0556438,77.0649779 15.283792,77.1869929 C15.5119401,77.3090079 15.6909921,77.4880599 15.8130071,77.716208 C15.9350221,77.9443562 16,78.1706565 16,78.7947196 L16,85.2052804 C16,85.8293435 15.9350221,86.0556438 15.8130071,86.283792 C15.6909921,86.5119401 15.5119401,86.6909921 15.283792,86.8130071 C15.0556438,86.9350221 14.8293435,87 14.2052804,87 L1.79471964,87 C1.17065652,87 0.944356156,86.9350221 0.716208008,86.8130071 C0.488059859,86.6909921 0.309007857,86.5119401 0.186992893,86.283792 C0.0649779278,86.0556438 -1.88737914e-14,85.8293435 -1.88737914e-14,85.2052804 L-1.95399252e-14,78.7947196 C-1.95399252e-14,78.1706565 0.0649779278,77.9443562 0.186992893,77.716208 C0.309007857,77.4880599 0.488059859,77.3090079 0.716208008,77.1869929 C0.944356156,77.0649779 1.17065652,77 1.79471964,77 Z M2.5,75 L13.5,75 C13.6840949,75 13.856571,75.0497461 14.0047191,75.1365293 C14.1528673,75.2233125 14.2766875,75.3471327 14.3634707,75.4952809 C14.4502539,75.643429 14.5,75.8159051 14.5,76 L1.5,76 C1.5,75.8159051 1.54974614,75.643429 1.63652931,75.4952809 C1.72331249,75.3471327 1.8471327,75.2233125 1.99528085,75.1365293 C2.143429,75.0497461 2.31590508,75 2.5,75 Z M4,73 L12,73 C12.1840949,73 12.356571,73.0497461 12.5047191,73.1365293 C12.6528673,73.2233125 12.7766875,73.3471327 12.8634707,73.4952809 C12.9502539,73.643429 13,73.8159051 13,74 L3,74 C3,73.8159051 3.04974614,73.643429 3.13652931,73.4952809 C3.22331249,73.3471327 3.3471327,73.2233125 3.49528085,73.1365293 C3.643429,73.0497461 3.81590508,73 4,73 Z" id="Style"></path>
                </g>
            </g>
        </g>
    </g>
</svg>

<svg width="16" height="14" viewBox="0 0 16 14" xmlns="http://www.w3.org/2000/svg" xmlns:xlink="http://www.w3.org/1999/xlink"><g id="Page-1" stroke="none" stroke-width="1" fill="none" fill-rule="evenodd"><g id="02---02---Карточка_desktop" transform="translate(-157 -1127)" fill="#b00"><g id="список-характеристик" transform="translate(132 968)"><g id="Group-5" transform="translate(25 86)"><path d="M1.795 77h12.41c.624 0 .85.065 1.079.187.228.122.407.301.529.53.122.227.187.454.187 1.078v6.41c0 .624-.065.85-.187 1.079a1.272 1.272 0 01-.53.529c-.227.122-.454.187-1.078.187H1.795c-.624 0-.85-.065-1.079-.187a1.272 1.272 0 01-.529-.53C.065 86.057 0 85.83 0 85.206v-6.41c0-.624.065-.85.187-1.079a1.27 1.27 0 01.53-.529c.227-.122.454-.187 1.078-.187zm.705-2h11a.995.995 0 01.863.495c.087.148.137.32.137.505h-13a.995.995 0 01.495-.863A.995.995 0 012.5 75zM4 73h8a.995.995 0 01.863.495c.087.148.137.32.137.505H3a.995.995 0 01.495-.863A.995.995 0 014 73z" id="Style"/></g></g></g></g></svg>
